X:62
T:Jig. RDO.62
T:?
M:6/8
L:1/8
Q:3/8=120
S:Robert D. Owen MS,Indiana,1826.
R:.Jig
O:Indiana,USA
A:New Harmony
Z:vmp.Chris Partington
K:G
G2e dBG|BAB dBG|G2e dBG|A2A BGE|!
G2e dBG|BAB def|gfe dcB|ABA BGE:|!
|:gbg faf|ege dcB|gbg faf|g2a bae|!
gbg faf|ege def|gfe dcB|ABA BGE:|

